svg/24/speaker.svg

<svg width="24" height="24" viewBox="0 0 24 24" fill="currentColor" xmlns="http://www.w3.org/2000/svg"><path fill-rule="evenodd" clip-rule="evenodd" d="M12 10C13.3807 10 14.5 8.88071 14.5 7.5C14.5 6.11929 13.3807 5 12 5C10.6193 5 9.5 6.11929 9.5 7.5C9.5 8.88071 10.6193 10 12 10ZM12 8.5C12.5523 8.5 13 8.05228 13 7.5C13 6.94772 12.5523 6.5 12 6.5C11.4477 6.5 11 6.94772 11 7.5C11 8.05228 11.4477 8.5 12 8.5Z"/><path fill-rule="evenodd" clip-rule="evenodd" d="M16 15C16 17.2091 14.2091 19 12 19C9.79086 19 8 17.2091 8 15C8 12.7909 9.79086 11 12 11C14.2091 11 16 12.7909 16 15ZM14.5 15C14.5 16.3807 13.3807 17.5 12 17.5C10.6193 17.5 9.5 16.3807 9.5 15C9.5 13.6193 10.6193 12.5 12 12.5C13.3807 12.5 14.5 13.6193 14.5 15Z"/><path fill-rule="evenodd" clip-rule="evenodd" d="M6 2C4.89543 2 4 2.89543 4 4V20C4 21.1046 4.89543 22 6 22H18C19.1046 22 20 21.1046 20 20V4C20 2.89543 19.1046 2 18 2H6ZM18 3.5H6C5.72386 3.5 5.5 3.72386 5.5 4V20C5.5 20.2761 5.72386 20.5 6 20.5H18C18.2761 20.5 18.5 20.2761 18.5 20V4C18.5 3.72386 18.2761 3.5 18 3.5Z"/></svg>

<svg xmlns="http://www.w3.org/2000/svg" width="24" height="24" fill="currentColor" viewBox="0 0 24 24">
  <path fill-rule="evenodd" d="M12 10a2.5 2.5 0 1 0 0-5 2.5 2.5 0 0 0 0 5Zm0-1.5a1 1 0 1 0 0-2 1 1 0 0 0 0 2Zm4 6.5a4 4 0 1 1-8 0 4 4 0 0 1 8 0Zm-1.5 0a2.5 2.5 0 1 1-5 0 2.5 2.5 0 0 1 5 0Z" clip-rule="evenodd"/>
  <path fill-rule="evenodd" d="M6 2a2 2 0 0 0-2 2v16a2 2 0 0 0 2 2h12a2 2 0 0 0 2-2V4a2 2 0 0 0-2-2H6Zm12 1.5H6a.5.5 0 0 0-.5.5v16a.5.5 0 0 0 .5.5h12a.5.5 0 0 0 .5-.5V4a.5.5 0 0 0-.5-.5Z" clip-rule="evenodd"/>
</svg>
